swiss/communes/0198.svg

<?xml version="1.0" encoding="UTF-8" standalone="no"?>
<!-- Created with Inkscape (http://www.inkscape.org/) -->
<svg
   xmlns:svg="http://www.w3.org/2000/svg"
   xmlns="http://www.w3.org/2000/svg"
   version="1.0"
   width="235.24924"
   height="275.55811"
   id="svg2780">
  <defs
     id="defs2782" />
  <path
     d="M 0.99921,0.99922 L 5.24013,179.13111 C 8.26934,306.36817 226.97987,306.36817 230.00909,179.13111 L 234.25002,0.99922 L 0.99921,0.99922 z "
     style="fill:#ffffff;fill-opacity:1;fill-rule:evenodd;stroke:#000000;stroke-width:1.99842525;stroke-linecap:butt;stroke-miterlimit:4;stroke-dasharray:none;stroke-dashoffset:0;stroke-opacity:1"
     id="path13047" />
  <path
     d="M 117.63378,110.59751 L 117.63378,163.72251 L 230.38378,163.72251 L 231.63378,110.59751 L 117.63378,110.59751 z "
     style="fill:#d64229;fill-opacity:1;fill-rule:evenodd;stroke:#000000;stroke-width:0.99921262;stroke-linecap:round;stroke-linejoin:miter;stroke-miterlimit:4;stroke-dasharray:none;stroke-dashoffset:0;stroke-opacity:1"
     id="rect6295" />
  <path
     d="M 117.63378,1.00376 L 117.63378,57.44126 L 232.91503,57.44126 L 234.25878,1.00376 L 117.63378,1.00376 z "
     style="fill:#d64229;fill-opacity:1;fill-rule:evenodd;stroke:#000000;stroke-width:0.99921262;stroke-linecap:round;stroke-linejoin:miter;stroke-miterlimit:4;stroke-dasharray:none;stroke-dashoffset:0;stroke-opacity:1"
     id="rect7266" />
  <path
     d="M 117.63378,216.87876 L 117.63378,274.56626 C 160.72943,274.56626 203.80954,255.32762 221.57128,216.87876 L 117.63378,216.87876 z "
     style="fill:#d64229;fill-opacity:1;fill-rule:evenodd;stroke:#000000;stroke-width:0.99921262;stroke-linecap:round;stroke-linejoin:miter;stroke-miterlimit:4;stroke-dasharray:none;stroke-dashoffset:0;stroke-opacity:1"
     id="rect7268" />
  <path
     d="M 117.62462,0.99922 L 117.62461,274.5589"
     style="fill:none;fill-opacity:1;fill-rule:evenodd;stroke:#000000;stroke-width:1.99842525;stroke-linecap:butt;stroke-miterlimit:4;stroke-dasharray:none;stroke-dashoffset:0;stroke-opacity:1"
     id="path13064" />
  <path
     d="M 117.62461,274.5589 C 173.05954,274.5589 228.49448,242.74964 230.00909,179.13111 L 234.25002,0.99922 L 117.62462,0.99922"
     style="fill:none;fill-opacity:1;fill-rule:evenodd;stroke:#000000;stroke-width:1.99842525;stroke-linecap:butt;stroke-miterlimit:4;stroke-dasharray:none;stroke-dashoffset:0;stroke-opacity:1"
     id="path13058" />
</svg>

<svg xmlns="http://www.w3.org/2000/svg" version="1.0" width="235.249" height="275.558"><path d="M1 1 5.24 179.13c3.03 127.237 221.74 127.237 224.77 0L234.25 1H1z" style="fill:#fff;fill-opacity:1;fill-rule:evenodd;stroke:#000;stroke-width:1.99842525;stroke-linecap:butt;stroke-miterlimit:4;stroke-dasharray:none;stroke-dashoffset:0;stroke-opacity:1"/><path d="M117.634 110.598v53.125h112.75l1.25-53.125h-114zM117.634 1.004V57.44h115.281l1.344-56.437H117.634zM117.634 216.879v57.687c43.095 0 86.176-19.238 103.937-57.687H117.634z" style="fill:#d64229;fill-opacity:1;fill-rule:evenodd;stroke:#000;stroke-width:.99921262;stroke-linecap:round;stroke-linejoin:miter;stroke-miterlimit:4;stroke-dasharray:none;stroke-dashoffset:0;stroke-opacity:1"/><path d="M117.625 1v273.559M117.625 274.559c55.435 0 110.87-31.81 112.384-95.428L234.25 1H117.625" style="fill:none;fill-opacity:1;fill-rule:evenodd;stroke:#000;stroke-width:1.99842525;stroke-linecap:butt;stroke-miterlimit:4;stroke-dasharray:none;stroke-dashoffset:0;stroke-opacity:1"/></svg>
